X:1
T:Paul paa Haugen
T:Paul paa Haugen
T:fra "Kvartetter for blandet kor"
T:Christian Haslerud
C:Christian Haslerud
%%score [ 1 2 3 4 ]
L:1/8
Q:1/4=60
M:2/4
K:G
V:1 treble nm="Soprano"
V:2 treble nm="Alto"
V:3 treble-8 nm="Tenor"
V:4 bass nm="Bass"
V:1
"^Let og raskt"!p! E E/ F/ G G/ E/ | F F/ ^D/ E B, | B B/ G/ A A/ F/ | (G/B/) (A/F/) G z | %4
w: Paul si- ne Hø- no paa|Hau- gen ut- slep- per|Hø- nun saa let o- ver|Hau- * gen _ Sprang|
 E E/ F/ G3/2 E/ | F F/ ^D/ E B, | B B/ G/ A A/ F/ | (G/B/) A/ F/ G z | B/ z/ B/ z/ A3/2 F/ | %9
w: Paul kun- de vel paa|Hø- nun for nem- ma|Ræ- ven va' u- te me|Rom- * pa saa lang|Kluk Kluk Kluk sa'|
 (G/F/) G/ B/ (A/F/) D | B/ z/ B/ z/ A3/2 F/ | (G/A/) B/ G/ d d | e3/2 e/ d3/2 B/ | %13
w: Hø- * na paa Hau- * gen|Kluk Kluk Kluk sa|Hø- * na paa Hau- gen|Paul han sprang og|
 c c/ A/ B B/ B/ | e3/2 e/ d3/2 B/ | c c/ A/ B B/ z/ |[Q:1/4=80]"^Rallentando" z4 | z2 z B, | %18
w: vræng- de me Au- ga aa|Paul han sprang og|vræng- de me Au- ga||aa|
[Q:1/4=40] (E/F/) G/ A/ B/ A/ G/ B/ | F F/ G/ E z ||[Q:1/4=60] B z B z | z4 | B z B z | z4 | %24
w: no _ tør eg in- kje ko- ma|heim at n Mor|Ho hei||Ho hei||
 z B z B | z B z B | E G B3/2 ^D/ | (E/F/) G/ E/ F B,/ ^D/ | E2 E z |] %29
w: hei hei|hei hei|Kluk Kluk Kluk sa|Hø- * na paa Hau- gen paa|Hau- gen.|
V:2
!p! E B,/ ^D/ E B,/ B,/ | ^D D/ B,/ B, B, | =D D/ D/ D D/ D/ | (D/G/) (F/D/) D z | %4
w: Paul si- ne Hø- no paa|Hau- gen ut- slep- per|Hø- nun saa let o- ver|Hau- * gen _ Sprang|
 E B,/ B,/ B,3/2 B,/ | ^D D/ B,/ B, G, | B, D/ D/ D D/ D/ | D D/ D/ D z | D/ z/ D/ z/ D3/2 D/ | %9
w: Paul kun- de vel paa|Hø- nun for nem- ma|Ræ- ven va' u- te me|Rom- pa saa lang|Kluk Kluk Kluk sa'|
 D D/ D/ D D | D/ z/ D/ z/ D3/2 D/ | (G/F/) G/ G/ F F | G3/2 G/ G3/2 G/ | F F/ F/ G G/ G/ | %14
w: Hø- na paa Hau- gen|Kluk Kluk Kluk sa|Hø- * na paa Hau- gen|Paul han sprang og|vræng- de me Au- ga aa|
 G3/2 G/ G3/2 G/ | E E/ E/ ^D D/ z/ | z4 | z2 z B, | (B,/^D/) E/ E/ D/ D/ E/ E/ | ^D D/ D/ B, z || %20
w: Paul han sprang og|vræng- de me Au- ga||aa|no _ tør eg in- kje ko- ma|heim at n Mor|
 G z F z | z4 | G z F z | z4 | z G z F | z G z F | E G B3/2 ^D/ | (E/F/) G/ E/ F B,/ ^D/ | %28
w: Ho hei||Ho hei||hei hei|hei hei|Kluk Kluk Kluk sa|Hø- * na paa Hau- gen paa|
 E2 E z |] %29
w: Hau- gen.|
V:3
!p! B G/ A/ B G/ G/ | A A/ A/ G G | G G/ B/ c c/ A/ | (B/d/) (c/A/) B z | B G/ A/ G3/2 G/ | %5
w: Paul si- ne Hø- no paa|Hau- gen ut- slep- per|Hø- nun saa let o- ver|Hau- * gen _ Sprang|Paul kun- de vel paa|
 B B/ B/ G G | G G/ G/ F F/ A/ | G F/ A/ B z | G/ z/ G/ z/ F3/2 A/ | (G/A/) G/ G/ (F/A/) F | %10
w: Hø- nun for nem- ma|Ræ- ven va' u- te me|Rom- pa saa lang|Kluk Kluk Kluk sa'|Hø- * na paa Hau- * gen|
 G/ z/ G/ z/ F3/2 A/ | (d/c/) B/ d/ A A | c3/2 c/ d3/2 d/ | d d/ d/ d B/ B/ | c3/2 c/ d3/2 d/ | %15
w: Kluk Kluk Kluk sa|Hø- * na paa Hau- gen|Paul han sprang og|vræng- de me Au- ga aa|Paul han sprang og|
 c A/ E/ F F/ z/ | z4 | z2 z B | (B/A/) G/ E/ F/ B/ B/ G/ | B B/ B/ G z || e z ^d z | z4 | %22
w: vræng- de me Au- ga||aa|no _ tør eg in- kje ko- ma|heim at n Mor|Ho hei||
 e z ^d z | z4 | z e z ^d | z e z ^d | E G B3/2 ^D/ | (E/F/) G/ E/ F B,/ ^D/ | E2 E z |] %29
w: Ho hei||hei hei|hei hei|Kluk Kluk Kluk sa|Hø- * na paa Hau- gen paa|Hau- gen.|
V:4
!p! G, G,/ F,/ E, E,/ E,/ | B,, B,,/ B,,/ E, E, | D, D,/ D,/ D, D,/ D,/ | (G,/G,/) C, G,, z | %4
w: Paul si- ne Hø- no paa|Hau- gen ut- slep- per|Hø- nun saa let o- ver|Hau- * gen Sprang|
 G, G,/ ^D,/ E,3/2 E,/ | B,, B,,/ B,,/ E, E, | G,, G,,/ B,,/ D, D,/ C,/ | %7
w: Paul kun- de vel paa|Hø- nun for nem- ma|Ræ- ven va' u- te me|
 (B,,/G,,/) D,/ D,/ G,, z | G,,/ z/ B,,/ z/ D,3/2 D,/ | (B,,/C,/) B,,/ G,,/ D, D, | %10
w: Rom- * pa saa lang|Kluk Kluk Kluk sa'|Hø- * na paa Hau- gen|
 G,,/ z/ B,,/ z/ D,3/2 D,/ | (B,,/A,,/) G,,/ B,,/ D, D, | C,3/2 C,/ B,,3/2 G,,/ | %13
w: Kluk Kluk Kluk sa|Hø- * na paa Hau- gen|Paul han sprang og|
 D, D,/ D,/ G, G,/ G,/ | C,3/2 C,/ B,,3/2 G,,/ | A,, A,,/ C,/ B,, B,,/ B,,/ | (B,,C,) B,, _B,, | %17
w: vræng- de me Au- ga aa|Paul han sprang og|vræng- de me Au- ga aa|vræng- * de me|
 B,, B,, z A, | (G,/F,/) E,/ C,/ B,,/ B,,/ E,/ G,/ | B, B,/ B,,/ E, z || z4 | %21
w: Au- ga aa|no _ tør eg in- kje ko- ma|heim at n Mor||
 F,/ G,/ A,/ G,/ F, z | z4 | E,/ F,/ G,/ E,/ B,, z | B,, z B,, z | B,, z B,, z | E, G, B,3/2 ^D,/ | %27
w: tral- la la la la||tral- la la la la|Ho Ho|Ho Ho|Kluk Kluk Kluk sa|
 (E,/F,/) G,/ E,/ F, B,,/ ^D,/ | E,2 E, z |] %29
w: Hø- * na paa Hau- gen paa|Hau- gen.|

